packages/kronos-fna-icons/src/overview.svg

<?xml version="1.0" encoding="UTF-8"?>
<svg width="16px" height="20px" viewBox="0 0 16 20" version="1.1" xmlns="http://www.w3.org/2000/svg" xmlns:xlink="http://www.w3.org/1999/xlink">
    <!-- Generator: Sketch 50.2 (55047) - http://www.bohemiancoding.com/sketch -->
    <title>overview</title>
    <desc>Created with Sketch.</desc>
    <defs></defs>
    <g id="overview" stroke="none" stroke-width="1" fill="none" fill-rule="evenodd">
        <path d="M15.36128,2.58060352 L0.63808,2.58060352 C0.28544,2.58060352 0,2.29207681 0,1.9351299 C0,1.57818299 0.28544,1.29030176 0.63808,1.29030176 L7.38112,1.29030176 L7.38112,0.644828143 C7.38112,0.288526706 7.6672,4.61852778e-14 8.01984,4.61852778e-14 C8.37248,4.61852778e-14 8.65792,0.288526706 8.65792,0.644828143 L8.65792,1.29030176 L15.36128,1.29030176 C15.71456,1.29030176 16,1.57947394 16,1.9351299 C16,2.29207681 15.71456,2.58060352 15.36128,2.58060352 L15.36128,2.58060352 Z M15.36128,12.9036631 L0.63808,12.9036631 L0.63808,3.22543166 L15.36128,3.22543166 L15.36128,12.9036631 L15.36128,12.9036631 Z M2.56,7.76182024 C2.56,9.19025335 3.70624,10.348233 5.12,10.348233 C6.53376,10.348233 7.68,9.19025335 7.68,7.76182024 L5.12,7.76182024 L5.12,5.17411651 C3.70624,5.17411651 2.56,6.33274165 2.56,7.76182024 L2.56,7.76182024 Z M9.61536,5.16120704 L8.97728,5.16120704 L8.97728,5.80603518 L9.61536,5.80603518 L9.61536,5.16120704 L9.61536,5.16120704 Z M9.61536,6.45150879 L8.97728,6.45150879 L8.97728,7.09633694 L9.61536,7.09633694 L9.61536,6.45150879 L9.61536,6.45150879 Z M9.61536,7.74181055 L8.97728,7.74181055 L8.97728,8.3866387 L9.61536,8.3866387 L9.61536,7.74181055 L9.61536,7.74181055 Z M9.61536,9.03211231 L8.97728,9.03211231 L8.97728,9.67758593 L9.61536,9.67758593 L9.61536,9.03211231 L9.61536,9.03211231 Z M9.61536,10.3230595 L8.97728,10.3230595 L8.97728,10.9685332 L9.61536,10.9685332 L9.61536,10.3230595 L9.61536,10.3230595 Z M13.4464,5.16120704 L10.25472,5.16120704 L10.25472,5.80603518 L13.4464,5.80603518 L13.4464,5.16120704 L13.4464,5.16120704 Z M13.4464,6.45150879 L10.25472,6.45150879 L10.25472,7.09633694 L13.4464,7.09633694 L13.4464,6.45150879 L13.4464,6.45150879 Z M13.4464,7.74181055 L10.25472,7.74181055 L10.25472,8.3866387 L13.4464,8.3866387 L13.4464,7.74181055 L13.4464,7.74181055 Z M13.4464,9.03211231 L10.25472,9.03211231 L10.25472,9.67758593 L13.4464,9.67758593 L13.4464,9.03211231 L13.4464,9.03211231 Z M13.4464,10.3230595 L10.25472,10.3230595 L10.25472,10.9685332 L13.4464,10.9685332 L13.4464,10.3230595 L13.4464,10.3230595 Z M6.25984,16.1297402 L7.70048,16.1297402 L7.70048,12.9036631 L8.3392,12.9036631 L8.3392,16.1297402 L9.75744,16.1297402 L8.3392,12.9036631 L9.616,12.9036631 L12.16896,18.7103437 L10.8928,18.7103437 L10.0416,16.7739229 L8.3392,16.7739229 L8.3392,20 L7.70048,20 L7.70048,16.7739229 L5.97184,16.7739229 L5.1072,18.7103437 L3.8304,18.7103437 L6.42368,12.9036631 L7.70048,12.9036631 L6.25984,16.1297402 L6.25984,16.1297402 Z" id="Shape" fill="#000000"></path>
    </g>
</svg>

<svg version="1.1" xmlns="http://www.w3.org/2000/svg" width="16" height="20" viewBox="0 0 16 20">
<title>overview</title>
<path d="M15.361 2.581h-14.723c-0.353 0-0.638-0.289-0.638-0.645s0.285-0.645 0.638-0.645h6.743v-0.645c0-0.356 0.286-0.645 0.639-0.645s0.638 0.289 0.638 0.645v0.645h6.703c0.353 0 0.639 0.289 0.639 0.645 0 0.357-0.285 0.645-0.639 0.645v0zM15.361 12.904h-14.723v-9.678h14.723v9.678zM2.56 7.762c0 1.428 1.146 2.586 2.56 2.586s2.56-1.158 2.56-2.586h-2.56v-2.588c-1.414 0-2.56 1.159-2.56 2.588v0zM9.615 5.161h-0.638v0.645h0.638v-0.645zM9.615 6.452h-0.638v0.645h0.638v-0.645zM9.615 7.742h-0.638v0.645h0.638v-0.645zM9.615 9.032h-0.638v0.645h0.638v-0.645zM9.615 10.323h-0.638v0.645h0.638v-0.645zM13.446 5.161h-3.192v0.645h3.192v-0.645zM13.446 6.452h-3.192v0.645h3.192v-0.645zM13.446 7.742h-3.192v0.645h3.192v-0.645zM13.446 9.032h-3.192v0.645h3.192v-0.645zM13.446 10.323h-3.192v0.645h3.192v-0.645zM6.26 16.13h1.441v-3.226h0.639v3.226h1.418l-1.418-3.226h1.277l2.553 5.807h-1.276l-0.851-1.936h-1.702v3.226h-0.639v-3.226h-1.729l-0.865 1.936h-1.277l2.593-5.807h1.277l-1.441 3.226z"></path>
</svg>
